assets/icons/qvision/spellcheck.svg

<svg width="24" height="24" viewBox="0 0 24 24" fill="none" xmlns="http://www.w3.org/2000/svg">
<g clip-path="url(#clip0_147_4777)">
<path d="M12.45 16H14.54L9.43001 3H7.57001L2.46001 16H4.55001L5.67001 13H11.31L12.45 16ZM6.43001 11L8.50001 5.48L10.57 11H6.43001ZM21.59 11.59L13.5 19.68L9.83001 16L8.42001 17.41L13.51 22.5L23 13L21.59 11.59Z" fill="#323232"/>
</g>
<defs>
<clipPath id="clip0_147_4777">
<rect width="24" height="24" fill="white"/>
</clipPath>
</defs>
</svg>

<svg xmlns="http://www.w3.org/2000/svg" height="24" viewBox="0 0 24 24" width="24"><path d="M0 0h24v24H0z" fill="none"/><path d="M12.45 16h2.09L9.43 3H7.57L2.46 16h2.09l1.12-3h5.64l1.14 3zm-6.02-5L8.5 5.48 10.57 11H6.43zm15.16.59l-8.09 8.09L9.83 16l-1.41 1.41 5.09 5.09L23 13l-1.41-1.41z"/></svg>
